svgs/wear_os.svg

<svg width="192" height="192" viewBox="0 0 192 192" fill="none" xmlns="http://www.w3.org/2000/svg"><path fill-rule="evenodd" clip-rule="evenodd" d="M37.595 58.022a5 5 0 0 0-9.181 3.965l38 88a5 5 0 0 0 9.18-3.965l-38-88Zm14.424 3.135-3.408-7.892c-3.722-8.62-13.726-12.59-22.346-8.868-8.62 3.722-12.59 13.727-8.868 22.347l38 88c3.722 8.619 13.727 12.589 22.347 8.867 6.008-2.594 9.758-8.242 10.217-14.345.2-2.652-.222-5.39-1.35-8.001l-30.456-70.53-4.136-9.578Zm12.029-2.414c-.2 2.652.222 5.39 1.35 8l30.456 70.531 4.135 9.577 3.408 7.893c3.722 8.619 13.727 12.59 22.347 8.867 8.619-3.722 12.589-13.726 8.867-22.346l-38-88c-3.722-8.62-13.727-12.59-22.346-8.868-6.009 2.595-9.758 8.242-10.217 14.346Zm21.547-.72a5 5 0 0 0-9.181 3.964l38 88a5.001 5.001 0 0 0 9.181-3.965l-38-88Zm73.409 6.981a5 5 0 1 0 0-9.999 5 5 0 0 0 0 10Zm0 12c9.389 0 17-7.61 17-17 0-9.388-7.611-17-17-17s-17 7.612-17 17c0 9.39 7.611 17 17 17Zm-11 20a5 5 0 1 1-10 0 5 5 0 0 1 10 0Zm12 0c0 9.389-7.611 17-17 17s-17-7.611-17-17c0-9.388 7.611-17 17-17s17 7.612 17 17Z" fill="#000"/></svg>

<svg id="vector" xmlns="http://www.w3.org/2000/svg" width="192" height="192" viewBox="0 0 192 192"><path fill="#000000" d="M37.595,58.022C36.5,55.487 33.557,54.319 31.022,55.414C28.487,56.509 27.319,59.451 28.414,61.986L66.414,149.987C67.509,152.522 70.451,153.689 72.987,152.595C75.522,151.5 76.689,148.557 75.595,146.022L37.595,58.022ZM52.019,61.157L48.611,53.265C44.889,44.645 34.884,40.675 26.265,44.397C17.645,48.119 13.675,58.124 17.397,66.744L55.397,154.744C59.119,163.363 69.124,167.333 77.744,163.611C83.752,161.017 87.502,155.369 87.961,149.266C88.16,146.614 87.739,143.876 86.611,141.265L56.155,70.735L52.019,61.157ZM64.048,58.743C63.848,61.395 64.27,64.133 65.397,66.744L95.854,137.274L99.989,146.851L103.397,154.744C107.119,163.363 117.124,167.334 125.744,163.611C134.363,159.889 138.333,149.885 134.611,141.265L96.611,53.265C92.889,44.645 82.884,40.675 74.265,44.397C68.256,46.992 64.507,52.639 64.048,58.743ZM85.595,58.022C84.5,55.487 81.557,54.319 79.022,55.414C76.487,56.509 75.319,59.451 76.414,61.987L114.414,149.987C115.509,152.522 118.451,153.689 120.987,152.595C123.522,151.5 124.689,148.557 123.595,146.022L85.595,58.022ZM159.004,65.004C161.766,65.004 164.004,62.766 164.004,60.004C164.004,57.243 161.766,55.004 159.004,55.004C156.243,55.004 154.004,57.243 154.004,60.004C154.004,62.766 156.243,65.004 159.004,65.004ZM159.004,77.004C168.393,77.004 176.004,69.393 176.004,60.004C176.004,50.616 168.393,43.004 159.004,43.004C149.615,43.004 142.004,50.616 142.004,60.004C142.004,69.393 149.615,77.004 159.004,77.004ZM148.004,97.004C148.004,99.766 145.766,102.004 143.004,102.004C140.243,102.004 138.004,99.766 138.004,97.004C138.004,94.243 140.243,92.004 143.004,92.004C145.766,92.004 148.004,94.243 148.004,97.004ZM160.004,97.004C160.004,106.393 152.393,114.004 143.004,114.004C133.615,114.004 126.004,106.393 126.004,97.004C126.004,87.616 133.615,80.004 143.004,80.004C152.393,80.004 160.004,87.616 160.004,97.004Z" fill-rule="evenodd" id="path_0"/></svg>
